components/Common/Svg/svgs/desktopCode.svg

<svg width="40" height="40" viewBox="0 0 40 40" fill="none" xmlns="http://www.w3.org/2000/svg">
<path fill-rule="evenodd" clip-rule="evenodd" d="M36 27.2222C36 28.1855 35.1979 29 34.1667 29H20H5.83333C4.80205 29 4 28.1855 4 27.2222V7.77779C4 6.81452 4.80205 6.00001 5.83333 6.00001H34.1667C35.1979 6.00001 36 6.81452 36 7.77779V27.2222ZM34.1667 31H21V35H26C26.5523 35 27 35.4477 27 36C27 36.5523 26.5523 37 26 37H20H14C13.4477 37 13 36.5523 13 36C13 35.4477 13.4477 35 14 35H19V31H5.83333C3.735 31 2 29.3272 2 27.2222V7.77779C2 5.6728 3.735 4.00001 5.83333 4.00001H34.1667C36.265 4.00001 38 5.6728 38 7.77779V27.2222C38 29.3272 36.265 31 34.1667 31ZM23.1198 8.80653C23.5091 8.94808 23.7099 9.37841 23.5683 9.76768L17.8411 25.5177C17.6995 25.907 17.2692 26.1078 16.8799 25.9662C16.4906 25.8247 16.2898 25.3943 16.4314 25.0051L22.1587 9.25507C22.3002 8.86579 22.7305 8.66497 23.1198 8.80653ZM14.7526 14.383C15.0709 14.1178 15.1138 13.6449 14.8487 13.3267C14.5835 13.0085 14.1106 12.9655 13.7924 13.2307L9.49691 16.8102C9.32592 16.9527 9.22705 17.1638 9.22705 17.3864C9.22705 17.609 9.32592 17.82 9.49691 17.9625L13.7924 21.5421C14.1106 21.8073 14.5835 21.7643 14.8487 21.4461C15.1138 21.1279 15.0709 20.6549 14.7526 20.3898L11.1486 17.3864L14.7526 14.383ZM26.2072 13.2307C25.889 12.9655 25.4161 13.0085 25.1509 13.3267C24.8857 13.6449 24.9287 14.1178 25.2469 14.383L28.851 17.3864L25.2469 20.3898C24.9287 20.6549 24.8857 21.1279 25.1509 21.4461C25.4161 21.7643 25.889 21.8073 26.2072 21.5421L30.5026 17.9625C30.6736 17.82 30.7725 17.609 30.7725 17.3864C30.7725 17.1638 30.6736 16.9527 30.5026 16.8102L26.2072 13.2307Z" fill="#161616"/>
</svg>

<svg width="40" height="40" viewBox="0 0 40 40" fill="none" xmlns="http://www.w3.org/2000/svg"><path fill-rule="evenodd" clip-rule="evenodd" d="M36 27.222c0 .963-.802 1.778-1.833 1.778H5.833C4.803 29 4 28.186 4 27.222V7.778C4 6.815 4.802 6 5.833 6h28.334C35.197 6 36 6.815 36 7.778v19.444ZM34.167 31H21v4h5a1 1 0 1 1 0 2H14a1 1 0 1 1 0-2h5v-4H5.833C3.735 31 2 29.327 2 27.222V7.778C2 5.673 3.735 4 5.833 4h28.334C36.265 4 38 5.673 38 7.778v19.444C38 29.327 36.265 31 34.167 31ZM23.12 8.807a.75.75 0 0 1 .448.96l-5.727 15.75a.75.75 0 0 1-1.41-.512l5.728-15.75a.75.75 0 0 1 .96-.448Zm-8.367 5.576a.75.75 0 1 0-.96-1.152l-4.296 3.58a.75.75 0 0 0 0 1.151l4.295 3.58a.75.75 0 1 0 .96-1.152l-3.603-3.004 3.604-3.003Zm11.454-1.152a.75.75 0 1 0-.96 1.152l3.604 3.003-3.604 3.004a.75.75 0 1 0 .96 1.152l4.296-3.58a.75.75 0 0 0 0-1.152l-4.296-3.58Z" fill="#161616"/></svg>
